X: 88
T: Soldiers of France v.1
P: piffero primo a0655
O: Dan Moylan
%R: march
F: http://ancients.sudburymuster.org/mus/sng/pdf/soldiersC0.pdf
Z: 2020 John Chambers <jc:trillian.mit.edu>
M: 2/4
L: 1/16
K: A
(c=c |\
c2)c2 c2dc | f2c2 c2dc |\
c2cd c2A2 | cdcA B2(c=c |\
c2)c2 c2dc | f2c2 c2dc |\
c2cB cdcB | A2c2 c2 :|
|: cd |\
"^>"e3"^>"c3"^>"A2 | cAFA d2c2 |\
"^>"e3"^>"c3"^>"A2 | dcAc B2cd |\
"^>"e3"^>"c3"^>"A2 | cAFA d2c2 |\
cdef cdcB | A2c2 c2 :|


